X: 23
T: Missa Princesse d'amourettes &mdash; Sanctus
C: Gaspar van Weerbeke
%%abc-version 2.0
%%abcx-abcm2ps-target-version 5.9.1 (29 Sep 2008)
%%abc-creator hum2abc beta
%%abcx-conversion-date 2022/03/06 13:05:59
%%abc-copyright Copyright 2014, Pavanello, Agnese
%%abc-edited-by Mair-Gruber, Roland
%%humdrum-veritas 477661897
%%humdrum-veritas-data 1126539854
%%linebreak <none>
%%barnumbers 0
L: 1/4
M: 3/2
N: Derived from Gas0103d-Missa_Princesse_damourettes-Sanctus.krn
%%staves [1 2 3 4]
V: 1 clef=treble
V: 2 clef=treble-8
V: 3 clef=treble-8
V: 4 clef=bass
K: C
[V:1] z6 | 
[V:2] G4G2 | 
[V:3] z6 | 
[V:4] G,,2C,2B,,2 | 
[V:1] z6 | 
[V:2] c2B2A2 | 
[V:3] z6 | 
[V:4] A,,2B,,D,2C, | 
[V:1] z6 | 
[V:2] Bd2cd2 | 
[V:3] z6 | 
[V:4] D,2E,2D,G,- | 
[V:1] z6 | 
[V:2] e2dg2c | 
[V:3] z6 | 
[V:4] G,C,B,,G,,C,3/D,/ | 
[V:1] z6 | 
[V:2] BGc>de3/d/ | 
[V:3] z6 | 
[V:4] E,2>F,2E,A,- | 
[V:1] z6 | 
[V:2] cBA2zG | 
[V:3] z6 | 
[V:4] A,G,2F,G,3/E,/ | 
[V:1] z2G2AG | 
[V:2] AG2<c2B | 
[V:3] z6 | 
[V:4] F,E,C,2zE, | 
[V:1] c2>B2A3/G//F// | 
[V:2] A>G E/D/G2F | 
[V:3] z6 | 
[V:4] F,>E,C,G,,D,2 | 
[V:1] E/D/G2FG2 | 
[V:2] G2A2Gc- | 
[V:3] z6 | 
[V:4] z6 | 
[V:1] A2GC2D | 
[V:2] cd2<e2f | 
[V:3] z6 | 
[V:4] z6 | 
[V:1] E2>F2EG- | 
[V:2] eg>fdc2 | 
[V:3] z6 | 
[V:4] z6 | 
[V:1] G/F/DC2B,2 | 
[V:2] B2zcd3/c//d// | 
[V:3] z6 | 
[V:4] z6 | 
[V:1] zCD3/C//D//E3/D//C// | 
[V:2] ed/c/B2zE- | 
[V:3] z6 | 
[V:4] z6 | 
[V:1] B,2zE>FG | 
[V:2] E/F/GC2c3/d/ | 
[V:3] z6 | 
[V:4] z6 | 
[V:1] C>D E/F/G/A/GF/E/ | 
[V:2] e/f<gf/e/d/ed/c/ | 
[V:3] z6 | 
[V:4] z6 | 
[V:1] DCB,CD2 | 
[V:2] Bedc2B | 
[V:3] G6- | 
[V:4] z6 | 
[V:1] E>F G/A/B2A/G/ | 
[V:2] c>ded2B | 
[V:3] G6 | 
[V:4] C,2>B,,2G,,2 | 
[V:1] A2>G2Ac- | 
[V:2] A>B c/d/ecg | 
[V:3] c6 | 
[V:4] zF,2E,F,C, | 
[V:1] cB2A2^G | 
[V:2] zg2e>dc/B/ | 
[V:3] d2>c2B2 | 
[V:4] G,2>A,2E,2 | 
[V:1] A3G/F/EF | 
[V:2] cfedcd | 
[V:3] A6- | 
[V:4] A,,D,C,D,z2 | 
[V:1] ED2^CDF- | 
[V:2] cde2zd- | 
[V:3] A6- | 
[V:4] A,,D,A,,2z2 | 
[V:1] F/G/A2G2^F | 
[V:2] dcdBA2 | 
[V:3] A6 | 
[V:4] z2D,4 | 
[V:1] G4z2 | 
[V:2] G3F/E/D2 | 
[V:3] B6 | 
[V:4] G,,6 | 
[V:1] E2E>FGC | 
[V:2] c>d e/f/gcg- | 
[V:3] G6- | 
[V:4] C,6 | 
[V:1] G>ABcBA/G/ | 
[V:2] g/f/edcd2 | 
[V:3] G6 | 
[V:4] z2G,,C,G,,2 | 
[V:1] F2F2z2 | 
[V:2] d>cAF>GA/B/ | 
[V:3] A6- | 
[V:4] D,4D,3/C,/ | 
[V:1] z6 | 
[V:2] c>defge | 
[V:3] A4G2 | 
[V:4] A,,>B,,C,D,E,C, | 
[V:1] z2z2c2 | 
[V:2] fde/d/c/B/c2 | 
[V:3] F2E4 | 
[V:4] D,2A,,4 | 
[V:1] BA2G2^F | 
[V:2] d2>B2A2 | 
[V:3] D6- | 
[V:4] z6 | 
[V:1] GB>cd>cA | 
[V:2] G2zD>EF | 
[V:3] D6 | 
[V:4] G,,2G,,>A,, B,,/C,/D, | 
[V:1] GcBAG3/E/ | 
[V:2] GABd2^c | 
[V:3] z6 | 
[V:4] E,F,G,D,E,2 | 
[V:1] F3A>GF | 
[V:2] d2c/B/A/G/FA | 
[V:3] A4cd- | 
[V:4] D,2zF,2D, | 
[V:1] E2zDCB, | 
[V:2] zAF>GAD | 
[V:3] dcd2zd | 
[V:4] A,2D,>C,A,,G,, | 
[V:1] A,zz2d3/c/ | 
[V:2] zdcBAd- | 
[V:3] cBAd>cB/A/ | 
[V:4] F,G,/D,/F,G,D,G,, | 
[V:1] BA2G2^F | 
[V:2] dd2cd2 | 
[V:3] GFG2A2 | 
[V:4] zD,E,2D,2 | 
[V:1] G6 ||  
[V:2] [B6d6] ||  
[V:3] G6 ||  
[V:4] G,,6 ||  
[V:1] [M:2/2]z4 | 
[V:2] [M:2/2]D4 | 
[V:3] [M:2/2]z4 | 
[V:4] [M:2/2]z4 | 
[V:1] D4 | 
[V:2] F3G | 
[V:3] z4 | 
[V:4] z4 | 
[V:1] F3G | 
[V:2] ADAB | 
[V:3] z4 | 
[V:4] z4 | 
[V:1] A3D | 
[V:2] c2dB | 
[V:3] z4 | 
[V:4] z4 | 
[V:1] AFE2 | 
[V:2] Ad2^c | 
[V:3] z4 | 
[V:4] z4 | 
[V:1] D3G, | 
[V:2] dG2E | 
[V:3] z4 | 
[V:4] z4 | 
[V:1] DB,A,2 | 
[V:2] DG2^F | 
[V:3] z4 | 
[V:4] zG,,D,2 | 
[V:1] G,2z2 | 
[V:2] G2B2- | 
[V:3] z4 | 
[V:4] E,2D,G,- | 
[V:1] z4 | 
[V:2] Bcd2- | 
[V:3] z4 | 
[V:4] G,F,/E,/D,G,- | 
[V:1] z4 | 
[V:2] dGdB | 
[V:3] z4 | 
[V:4] G,/A,<B,G,/G,- | 
[V:1] z4 | 
[V:2] A2z2 | 
[V:3] z4 | 
[V:4] G,^F,G,3/=F,/ | 
[V:1] z4 | 
[V:2] B2c2 | 
[V:3] z4 | 
[V:4] E,D,C,B,,/A,,/ | 
[V:1] z4 | 
[V:2] Bd>cB/A/ | 
[V:3] z4 | 
[V:4] G,,2B,,2 | 
[V:1] z4 | 
[V:2] G2z2 | 
[V:3] z4 | 
[V:4] C,2B,,D,- | 
[V:1] F2G2 | 
[V:2] z2B2 | 
[V:3] z4 | 
[V:4] D,/C,/B,,/A,,/G,,2 | 
[V:1] FA>GF/E/ | 
[V:2] A3c | 
[V:3] z4 | 
[V:4] zD,F,2 | 
[V:1] DG2^F | 
[V:2] BGA2 | 
[V:3] z4 | 
[V:4] G,E,D,2 | 
[V:1] G2z2 | 
[V:2] z2G2 | 
[V:3] z4 | 
[V:4] E,C,B,,3/C,/ | 
[V:1] z2zD- | 
[V:2] FA>GF/E/ | 
[V:3] z4 | 
[V:4] D,>C,A,,D, | 
[V:1] DC/B,/C2 | 
[V:2] DG2^F | 
[V:3] z4 | 
[V:4] B,,G,,A,,2 | 
[V:1] B,D>CB,/A,/ | 
[V:2] G4 | 
[V:3] z4 | 
[V:4] G,,2zG,- | 
[V:1] G,B,A,2 | 
[V:2] z4 | 
[V:3] z4 | 
[V:4] G,F,/E,/F,2 | 
[V:1] G,B,>CE- | 
[V:2] z2zG- | 
[V:3] z4 | 
[V:4] E,G,>F,E,/D,/ | 
[V:1] E/D/C2B, | 
[V:2] GF/E/F2 | 
[V:3] z4 | 
[V:4] C,E,D,2 | 
[V:1] C2zG- | 
[V:2] EG>FE/D/ | 
[V:3] z4 | 
[V:4] C,2G,,C,- | 
[V:1] GF/E/F2 | 
[V:2] CED2 | 
[V:3] z4 | 
[V:4] C,3B,, | 
[V:1] EG>FE/D/ | 
[V:2] Cc>de- | 
[V:3] z4 | 
[V:4] C,4 | 
[V:1] CED2 | 
[V:2] e/d/c2B | 
[V:3] z4 | 
[V:4] z4 | 
[V:1] Cc2B | 
[V:2] c2d3/c/ | 
[V:3] z4 | 
[V:4] z4 | 
[V:1] c2d3/c/ | 
[V:2] A2zD- | 
[V:3] z4 | 
[V:4] z4 | 
[V:1] A2zD- | 
[V:2] D/E/FG3/A/ | 
[V:3] z4 | 
[V:4] z4 | 
[V:1] D/E/FGA- | 
[V:2] B/c/dBc- | 
[V:3] z4 | 
[V:4] z4 | 
[V:1] A/G/^F/E/F2 | 
[V:2] c/B/A/G/A2 | 
[V:3] z4 | 
[V:4] z4 | 
[V:1] G4 | 
[V:2] G>A B/c/d | 
[V:3] z4 | 
[V:4] zG,,>A,,B,, | 
[V:1] z4 | 
[V:2] efg3/f/ | 
[V:3] z4 | 
[V:4] C,D,E,3/F,/ | 
[V:1] zD>EF | 
[V:2] d2zd | 
[V:3] z4 | 
[V:4] G,>F,D,2 | 
[V:1] GABc | 
[V:2] efge | 
[V:3] z4 | 
[V:4] C,A,,G,,A,, | 
[V:1] d>cA2 | 
[V:2] dg2^f | 
[V:3] z4 | 
[V:4] B,,G,,D,2 | 
[V:1] zB2G | 
[V:2] g2de | 
[V:3] z4 | 
[V:4] G,,2G,E, | 
[V:1] AFGE- | 
[V:2] cd2B- | 
[V:3] z4 | 
[V:4] F,D,G,2- | 
[V:1] ED2^C | 
[V:2] BA2G | 
[V:3] z4 | 
[V:4] G,F,E,2 | 
[V:1] D2zD | 
[V:2] A2FG- | 
[V:3] z4 | 
[V:4] D,2zB,, | 
[V:1] EFG2 | 
[V:2] GAB3/G/ | 
[V:3] z4 | 
[V:4] C,A,,G,,2 | 
[V:1] A2B2 | 
[V:2] cB/A/G2 | 
[V:3] z4 | 
[V:4] zF,G,3/E,/ | 
[V:1] AGc2 | 
[V:2] zgef | 
[V:3] z4 | 
[V:4] F,G,A,2 | 
[V:1] BA2d- | 
[V:2] gf2d | 
[V:3] z4 | 
[V:4] z4 | 
[V:1] d/c/B/A/ G/F/E/D/ | 
[V:2] g>f e/d/c- | 
[V:3] z4 | 
[V:4] z2G,A,- | 
[V:1] ED2G- | 
[V:2] cdBG | 
[V:3] z4 | 
[V:4] A,B,G,3/F,/ | 
[V:1] G/F<AE/^F | 
[V:2] c2A2 | 
[V:3] z4 | 
[V:4] E,/D,/C,D,2 | 
[V:1] G4 ||  
[V:2] G4 ||  
[V:3] z4 ||  
[V:4] G,,4 ||  
[V:1] [M:2/2]G4- | 
[V:2] [M:2/2]d4 | 
[V:3] [M:2/2]G4- | 
[V:4] [M:2/2]G,4- | 
[V:1] G4- | 
[V:2] e3d/c/ | 
[V:3] G4- | 
[V:4] G,2E,2- | 
[V:1] G4- | 
[V:2] B2c2 | 
[V:3] G4- | 
[V:4] E,D,C,2 | 
[V:1] G4 | 
[V:2] d2e2- | 
[V:3] G4 | 
[V:4] B,,2C,2- | 
[V:1] G2A2 | 
[V:2] e2f2 | 
[V:3] c4 | 
[V:4] C,B,,A,,2 | 
[V:1] B3A | 
[V:2] g4 | 
[V:3] d4- | 
[V:4] G,,4 | 
[V:1] GFE2 | 
[V:2] d2z2 | 
[V:3] d2c2 | 
[V:4] B,,2C,2 | 
[V:1] DG>FG | 
[V:2] d2G2 | 
[V:3] B4 | 
[V:4] D,2E,2 | 
[V:1] A>GFE | 
[V:2] c2c2- | 
[V:3] A4 | 
[V:4] F,4 | 
[V:1] D4 | 
[V:2] c2B2 | 
[V:3] B4 | 
[V:4] G,4 | 
[V:1] E3F | 
[V:2] c4 | 
[V:3] G4- | 
[V:4] C,4- | 
[V:1] GAB2 | 
[V:2] e2d2 | 
[V:3] G4 | 
[V:4] C,2B,,2 | 
[V:1] c>B A/G/F- | 
[V:2] c2z2 | 
[V:3] A4- | 
[V:4] A,,2D,2- | 
[V:1] FE/D<EF/ | 
[V:2] z4 | 
[V:3] A4 | 
[V:4] D,2C,2- | 
[V:1] G/F/E/D/FE- | 
[V:2] e2dc- | 
[V:3] G2FA- | 
[V:4] C,2D,A,, | 
[V:1] ED2^C | 
[V:2] cA3 | 
[V:3] AFE2 | 
[V:4] C,D,A,,2 | 
[V:1] D3C/B,/ | 
[V:2] F2G2- | 
[V:3] D4- | 
[V:4] z4 | 
[V:1] A,4 | 
[V:2] G2F2 | 
[V:3] D4 | 
[V:4] z4 | 
[V:1] B,2G,2 | 
[V:2] G>AB2 | 
[V:3] z4 | 
[V:4] G,,4 | 
[V:1] zG2F | 
[V:2] G3A | 
[V:3] z4 | 
[V:4] C,>D,E,F, | 
[V:1] GABc | 
[V:2] GFE2 | 
[V:3] z4 | 
[V:4] E,D,2C, | 
[V:1] F>G A/G/A- | 
[V:2] Dd>ef- | 
[V:3] A4- | 
[V:4] D,4 | 
[V:1] AG/F/E2 | 
[V:2] fe/d/c2 | 
[V:3] A4 | 
[V:4] z4 | 
[V:1] D2zd- | 
[V:2] d>ef2 | 
[V:3] B>cd2- | 
[V:4] z2D,2 | 
[V:1] dc/B/A2 | 
[V:2] g2fa- | 
[V:3] d4- | 
[V:4] G,2zD,- | 
[V:1] FGA2 | 
[V:2] a/g/g2^f | 
[V:3] d4- | 
[V:4] D,G,,D,2 | 
[V:1] Bd>cB- | 
[V:2] g2fd | 
[V:3] d2d2 | 
[V:4] G,2D,G,- | 
[V:1] BA2^G | 
[V:2] ge3 | 
[V:3] c2B2 | 
[V:4] G,A,E,2 | 
[V:1] A2zA | 
[V:2] c2A2 | 
[V:3] A2d2- | 
[V:4] F,3D, | 
[V:1] B>cd3/c/ | 
[V:2] zFG3/A/ | 
[V:3] d4- | 
[V:4] D,>C, B,,/A,,/G,, | 
[V:1] B/A<BA/B | 
[V:2] B/c/d2g | 
[V:3] d2d2 | 
[V:4] z2G,2 | 
[V:1] cA>BG- | 
[V:2] efd2- | 
[V:3] c2B2 | 
[V:4] A,F,G,2 | 
[V:1] G^FF3/E/ | 
[V:2] d4 | 
[V:3] A4 | 
[V:4] D,4 | 
[V:1] G4 | 
[V:2] d2zd- | 
[V:3] G4- | 
[V:4] G,,4 | 
[V:1] G/F/E/D/E2 | 
[V:2] dBc2 | 
[V:3] G4- | 
[V:4] z2C,2 | 
[V:1] D2zd- | 
[V:2] Bd2g- | 
[V:3] G4- | 
[V:4] G,,4- | 
[V:1] dBc2 | 
[V:2] g/f/e/d<ed/ | 
[V:3] G4- | 
[V:4] G,,2C,2 | 
[V:1] Bd>cB/A/ | 
[V:2] d4- | 
[V:3] G4- | 
[V:4] z4 | 
[V:1] B3A | 
[V:2] d2e2 | 
[V:3] G4 | 
[V:4] z2G,2 | 
[V:1] A3G | 
[V:2] f4 | 
[V:3] c4- | 
[V:4] F,3G, | 
[V:1] FEF2 | 
[V:2] z2A2- | 
[V:3] c4- | 
[V:4] A,2A,,2 | 
[V:1] E2A2 | 
[V:2] AGFE | 
[V:3] c4- | 
[V:4] z2A,,2 | 
[V:1] A>BcA- | 
[V:2] F2E2 | 
[V:3] c4- | 
[V:4] A,,4 | 
[V:1] AG/F/E2 | 
[V:2] zA2G/F/ | 
[V:3] c4- | 
[V:4] A,,4 | 
[V:1] zc2A | 
[V:2] E2zA- | 
[V:3] c4 | 
[V:4] z4 | 
[V:1] B2A2- | 
[V:2] A^GA2 | 
[V:3] d2c2 | 
[V:4] z2A,,2 | 
[V:1] A2^G2 | 
[V:2] z4 | 
[V:3] B4 | 
[V:4] E,4 | 
[V:1] A4- | 
[V:2] c3d | 
[V:3] A4- | 
[V:4] F,3E,/D,/ | 
[V:1] A4 | 
[V:2] ef2e- | 
[V:3] A4- | 
[V:4] C,D,2C, | 
[V:1] F2E2 | 
[V:2] ed2^c | 
[V:3] A4 | 
[V:4] D,2A,,2 | 
[V:1] DF>GA- | 
[V:2] d2ze | 
[V:3] A4- | 
[V:4] D,3C, | 
[V:1] AG2F | 
[V:2] f>ec2 | 
[V:3] A4 | 
[V:4] D,B,,A,,2 | 
[V:1] GG,A,2 | 
[V:2] dg2f | 
[V:3] z4 | 
[V:4] G,,2D,2 | 
[V:1] G,>A,B,2 | 
[V:2] ged2 | 
[V:3] B2G2 | 
[V:4] z4 | 
[V:1] C>D E/F/E- | 
[V:2] c4 | 
[V:3] A4 | 
[V:4] z2A,,2 | 
[V:1] ED2^C | 
[V:2] cA3 | 
[V:3] GFE2 | 
[V:4] C,D,A,,2 | 
[V:1] D3C/B,/ | 
[V:2] F2DE- | 
[V:3] D2z2 | 
[V:4] z4 | 
[V:1] CB,/A,/G,D- | 
[V:2] EFGD | 
[V:3] A2B2 | 
[V:4] z4 | 
[V:1] DB,A,2 | 
[V:2] FGD2 | 
[V:3] AG2^F | 
[V:4] z4 | 
[V:1] zB2A/G/ | 
[V:2] zd2c/B/ | 
[V:3] G4 | 
[V:4] G,,2G,2 | 
[V:1] A2B2 | 
[V:2] c>BGd- | 
[V:3] z4 | 
[V:4] F,2G,D, | 
[V:1] AG2^F | 
[V:2] dBA2 | 
[V:3] z4 | 
[V:4] F,G,D,2 | 
[V:1] G4 ||  
[V:2] G4 ||  
[V:3] G4 ||  
[V:4] G,,4 ||  
[V:1] [M:2/2]z4 | 
[V:2] [M:2/2]G4 | 
[V:3] [M:2/2]z4 | 
[V:4] [M:2/2]z4 | 
[V:1] z4 | 
[V:2] G2c2- | 
[V:3] z4 | 
[V:4] z2C,2- | 
[V:1] z4 | 
[V:2] cde2 | 
[V:3] z4 | 
[V:4] C,2C,2 | 
[V:1] z4 | 
[V:2] dc>BA/G/ | 
[V:3] z4 | 
[V:4] F,3G, | 
[V:1] z4 | 
[V:2] F2GA- | 
[V:3] z4 | 
[V:4] A,2G,F,- | 
[V:1] z4 | 
[V:2] A/G/F/E/D2 | 
[V:3] z4 | 
[V:4] F,/E,/D,/C,/B,,2 | 
[V:1] z4 | 
[V:2] CEFG- | 
[V:3] z4 | 
[V:4] C,2D,E,- | 
[V:1] z4 | 
[V:2] G/F/GAF | 
[V:3] z4 | 
[V:4] E,/D,/C,/B,,/A,,2 | 
[V:1] G,B,CD- | 
[V:2] G2AB- | 
[V:3] z4 | 
[V:4] G,,2z2 | 
[V:1] D/C/DEC | 
[V:2] B/A/ G/ F/E2 | 
[V:3] z4 | 
[V:4] z4 | 
[V:1] D3G- | 
[V:2] DG>AB- | 
[V:3] z4 | 
[V:4] z4 | 
[V:1] GAB2 | 
[V:2] Bcd2 | 
[V:3] z4 | 
[V:4] z2G,,2 | 
[V:1] AG>FE/D/ | 
[V:2] e2z2 | 
[V:3] z4 | 
[V:4] C,3D, | 
[V:1] C2DE- | 
[V:2] z4 | 
[V:3] z4 | 
[V:4] E,F,D,G,- | 
[V:1] E/D/C/B,/A,2 | 
[V:2] z4 | 
[V:3] z4 | 
[V:4] G,/F,/G,A,F, | 
[V:1] z4 | 
[V:2] Gc>Bc | 
[V:3] z4 | 
[V:4] G,A,>G,F,/E,/ | 
[V:1] z2zG- | 
[V:2] dBc2 | 
[V:3] z4 | 
[V:4] D,2C,2 | 
[V:1] G/F/GAF | 
[V:2] cBA2 | 
[V:3] z4 | 
[V:4] z4 | 
[V:1] G>F E/D/C/B,/ | 
[V:2] Gg>fg | 
[V:3] z4 | 
[V:4] z4 | 
[V:1] A,2G,C- | 
[V:2] afg3/f/ | 
[V:3] z4 | 
[V:4] z4 | 
[V:1] C/D/EFG- | 
[V:2] e/d/c/B/AG- | 
[V:3] z4 | 
[V:4] C,2D,E, | 
[V:1] G2AB | 
[V:2] Gc2B | 
[V:3] z4 | 
[V:4] C,E,F,G, | 
[V:1] Gc2B | 
[V:2] c2d2 | 
[V:3] z4 | 
[V:4] E,C,G,2 | 
[V:1] c2z2 | 
[V:2] c2AB- | 
[V:3] z4 | 
[V:4] C,F,2G,- | 
[V:1] z2c2 | 
[V:2] BA/G/ A/G/F/E/ | 
[V:3] z4 | 
[V:4] G,F,/E,/F,2 | 
[V:1] AB2A/G/ | 
[V:2] FGDE | 
[V:3] z4 | 
[V:4] z4 | 
[V:1] A/G/F/E/FG | 
[V:2] F>GAB- | 
[V:3] z4 | 
[V:4] z4 | 
[V:1] DEF3/G/ | 
[V:2] Bcd3/c/ | 
[V:3] z4 | 
[V:4] z4 | 
[V:1] AB2c | 
[V:2] AGdc | 
[V:3] z4 | 
[V:4] z4 | 
[V:1] d>cAG | 
[V:2] B>AFG- | 
[V:3] z4 | 
[V:4] z4 | 
[V:1] dcBA/G/ | 
[V:2] GABc | 
[V:3] z4 | 
[V:4] z4 | 
[V:1] F4- | 
[V:2] d3c/B/ | 
[V:3] z4 | 
[V:4] z4 | 
[V:1] F4 | 
[V:2] AD>EF/G/ | 
[V:3] z4 | 
[V:4] z2D,2- | 
[V:1] z4 | 
[V:2] ABc2 | 
[V:3] z4 | 
[V:4] D,C,/B,,/A,,2 | 
[V:1] G,>A, B,/C/D | 
[V:2] B>Gd2 | 
[V:3] z4 | 
[V:4] zG,,>A,,B,, | 
[V:1] EFGA | 
[V:2] c>AGc | 
[V:3] z4 | 
[V:4] C,D,E,F, | 
[V:1] Bc2B/A/ | 
[V:2] BGA2 | 
[V:3] z4 | 
[V:4] G,E,F,2 | 
[V:1] B4 | 
[V:2] zG2F/E/ | 
[V:3] z4 | 
[V:4] G,2z2 | 
[V:1] zB2A/G/ | 
[V:2] AG2F/E/ | 
[V:3] z4 | 
[V:4] z4 | 
[V:1] c>BAA- | 
[V:2] A>Bcd | 
[V:3] z4 | 
[V:4] zF,2E,/D,/ | 
[V:1] A^GA2- | 
[V:2] B2A3/B/ | 
[V:3] z4 | 
[V:4] E,2zF,- | 
[V:1] AG/F/AG- | 
[V:2] cdce- | 
[V:3] z4 | 
[V:4] F,E,/D,/F,C,- | 
[V:1] GFE2 | 
[V:2] ed2^c | 
[V:3] z4 | 
[V:4] C,D,A,2 | 
[V:1] D2z2 | 
[V:2] d3c/B/ | 
[V:3] z4 | 
[V:4] D,B,2A,/G,/ | 
[V:1] z4 | 
[V:2] dc2B | 
[V:3] z4 | 
[V:4] B,A,2G,- | 
[V:1] z4 | 
[V:2] A2G2 | 
[V:3] z4 | 
[V:4] G,^F,G,3/=F,/ | 
[V:1] G2DG | 
[V:2] z2G2 | 
[V:3] z4 | 
[V:4] E,/D,/C,B,,G,, | 
[V:1] AB2A/G/ | 
[V:2] DG>AB- | 
[V:3] z4 | 
[V:4] z4 | 
[V:1] d>cBA | 
[V:2] BA/G/d2 | 
[V:3] z4 | 
[V:4] z4 | 
[V:1] G>FED- | 
[V:2] e>dcB | 
[V:3] z4 | 
[V:4] C,>D, E,/F,/G, | 
[V:1] D/C/B,A,2 | 
[V:2] A/G/g2^f | 
[V:3] z4 | 
[V:4] F,G,D,2 | 
[V:1] G,G2^F | 
[V:2] gGA2 | 
[V:3] z4 | 
[V:4] E,2D,2 | 
[V:1] G4 |]  
[V:2] G4 |]  
[V:3] z4 |]  
[V:4] G,,4 |]  


